src/assets/img/icons/mask/icon-partner-waves.svg

<svg width="160" height="33" viewBox="0 0 160 33" fill="none" xmlns="http://www.w3.org/2000/svg">
<path fill-rule="evenodd" clip-rule="evenodd" d="M159.493 8.29719L151.18 16.5944L142.867 8.29719L151.18 0L159.493 8.29719Z" fill="#4D4D5D"/>
<path fill-rule="evenodd" clip-rule="evenodd" d="M159.493 8.29719L151.18 16.5944L142.867 8.29719L151.18 0L159.493 8.29719Z" fill="url(#paint0_linear)" fill-opacity="0.4"/>
<path fill-rule="evenodd" clip-rule="evenodd" d="M37.1889 8.61221H32.4986L32.0077 9.03574L27.1949 25.3042H27.1633L21.7675 9.03711L21.2766 8.61359H16.3717L15.8808 9.03711L10.5153 25.2148L10.4245 25.1543L10.3929 25.1255L5.58014 9.03711L5.08786 8.61084H0.306733L9.15527e-05 9.03711L7.51074 31.9458L8.03327 32.3996H12.7539L13.2764 31.9458L18.6392 15.5563H18.763L24.1587 31.9472L24.6813 32.3996H29.4624L29.9849 31.9458L37.4956 9.03711L37.1889 8.61221ZM90.2585 8.61221H85.5365L85.0154 9.03574L78.4246 25.9684L78.3627 25.9986L71.8339 9.03711L71.3128 8.61359H66.5L66.1934 9.03711L75.6043 31.9458L76.1571 32.3996H80.5106L81.062 31.9458L90.5665 9.03711L90.2585 8.61221Z" fill="#4D4D5D"/>
<path fill-rule="evenodd" clip-rule="evenodd" d="M37.1889 8.61221H32.4986L32.0077 9.03574L27.1949 25.3042H27.1633L21.7675 9.03711L21.2766 8.61359H16.3717L15.8808 9.03711L10.5153 25.2148L10.4245 25.1543L10.3929 25.1255L5.58014 9.03711L5.08786 8.61084H0.306733L9.15527e-05 9.03711L7.51074 31.9458L8.03327 32.3996H12.7539L13.2764 31.9458L18.6392 15.5563H18.763L24.1587 31.9472L24.6813 32.3996H29.4624L29.9849 31.9458L37.4956 9.03711L37.1889 8.61221ZM90.2585 8.61221H85.5365L85.0154 9.03574L78.4246 25.9684L78.3627 25.9986L71.8339 9.03711L71.3128 8.61359H66.5L66.1934 9.03711L75.6043 31.9458L76.1571 32.3996H80.5106L81.062 31.9458L90.5665 9.03711L90.2585 8.61221Z" fill="url(#paint1_linear)" fill-opacity="0.4"/>
<path d="M114.602 21.7731L115.061 21.351V20.6566C115.061 16.9439 113.988 13.7441 111.872 11.5109C109.759 9.27645 106.905 8.12964 103.411 8.12964C100.038 8.12964 97.218 9.3672 95.0412 11.7818C92.8645 14.1965 91.792 17.124 91.792 20.4448C91.792 23.976 92.9264 26.9351 95.1636 29.259C97.4023 31.5829 100.345 32.7599 103.901 32.7599C106.476 32.7599 108.685 32.1563 110.463 30.9187C112.241 29.7114 114.111 27.7189 114.754 25.0032L114.417 24.5494H110.003L109.389 25.0032C108.286 27.1758 106.6 28.203 103.81 28.203C102.034 28.2172 100.321 27.547 99.0262 26.3315C97.7391 25.153 97.0035 23.7353 96.8192 21.7126L114.602 21.7731ZM97.1259 17.5475C97.8932 14.7396 100.284 12.6578 103.41 12.6578C107.549 12.6578 109.268 15.555 109.757 17.5475H97.1259ZM58.5276 8.61229L58.0669 9.06606V11.4202L57.9748 11.5109C57.3615 10.7258 56.5337 10.0314 55.5533 9.45796C55.3215 9.33054 55.0863 9.20949 54.8479 9.09494C53.5292 8.46241 52.0276 8.15989 50.4023 8.15989C47.3675 8.15989 44.6998 9.3672 42.4928 11.7213C40.2859 14.0755 39.1817 17.0346 39.1817 20.5053C39.1817 23.976 40.2859 26.9351 42.4928 29.2893C44.6998 31.6434 47.3675 32.8507 50.4023 32.8507C52.0276 32.8507 53.4989 32.5482 54.8162 31.9156C55.0638 31.7946 55.3388 31.6736 55.5835 31.5224C56.5337 30.949 57.3313 30.3151 57.9445 29.5601C57.9748 29.5299 58.0683 29.5904 58.0985 29.5601V32.005L58.5578 32.4588H62.573L63.0337 32.005V9.03719L62.5744 8.58341H58.5276V8.61366V8.61229ZM56.0442 26.1802C54.6952 27.5993 53.0699 28.2923 51.1077 28.2923C49.2073 28.2923 47.7965 27.5993 46.4173 26.15C45.0381 24.7309 44.3629 22.8292 44.3629 20.4448C44.3629 18.0907 45.0684 16.1889 46.4173 14.7396C47.7965 13.3219 49.1757 12.5972 51.1077 12.5972C53.0397 12.5972 54.6636 13.2917 56.0442 14.7094C56.9325 15.6444 57.5155 16.7623 57.8524 18.1195V22.7082C57.5458 24.1272 56.9325 25.274 56.0442 26.1802Z" fill="#4D4D5D"/>
<path d="M114.602 21.7731L115.061 21.351V20.6566C115.061 16.9439 113.988 13.7441 111.872 11.5109C109.759 9.27645 106.905 8.12964 103.411 8.12964C100.038 8.12964 97.218 9.3672 95.0412 11.7818C92.8645 14.1965 91.792 17.124 91.792 20.4448C91.792 23.976 92.9264 26.9351 95.1636 29.259C97.4023 31.5829 100.345 32.7599 103.901 32.7599C106.476 32.7599 108.685 32.1563 110.463 30.9187C112.241 29.7114 114.111 27.7189 114.754 25.0032L114.417 24.5494H110.003L109.389 25.0032C108.286 27.1758 106.6 28.203 103.81 28.203C102.034 28.2172 100.321 27.547 99.0262 26.3315C97.7391 25.153 97.0035 23.7353 96.8192 21.7126L114.602 21.7731ZM97.1259 17.5475C97.8932 14.7396 100.284 12.6578 103.41 12.6578C107.549 12.6578 109.268 15.555 109.757 17.5475H97.1259ZM58.5276 8.61229L58.0669 9.06606V11.4202L57.9748 11.5109C57.3615 10.7258 56.5337 10.0314 55.5533 9.45796C55.3215 9.33054 55.0863 9.20949 54.8479 9.09494C53.5292 8.46241 52.0276 8.15989 50.4023 8.15989C47.3675 8.15989 44.6998 9.3672 42.4928 11.7213C40.2859 14.0755 39.1817 17.0346 39.1817 20.5053C39.1817 23.976 40.2859 26.9351 42.4928 29.2893C44.6998 31.6434 47.3675 32.8507 50.4023 32.8507C52.0276 32.8507 53.4989 32.5482 54.8162 31.9156C55.0638 31.7946 55.3388 31.6736 55.5835 31.5224C56.5337 30.949 57.3313 30.3151 57.9445 29.5601C57.9748 29.5299 58.0683 29.5904 58.0985 29.5601V32.005L58.5578 32.4588H62.573L63.0337 32.005V9.03719L62.5744 8.58341H58.5276V8.61366V8.61229ZM56.0442 26.1802C54.6952 27.5993 53.0699 28.2923 51.1077 28.2923C49.2073 28.2923 47.7965 27.5993 46.4173 26.15C45.0381 24.7309 44.3629 22.8292 44.3629 20.4448C44.3629 18.0907 45.0684 16.1889 46.4173 14.7396C47.7965 13.3219 49.1757 12.5972 51.1077 12.5972C53.0397 12.5972 54.6636 13.2917 56.0442 14.7094C56.9325 15.6444 57.5155 16.7623 57.8524 18.1195V22.7082C57.5458 24.1272 56.9325 25.274 56.0442 26.1802Z" fill="url(#paint2_linear)" fill-opacity="0.4"/>
<path fill-rule="evenodd" clip-rule="evenodd" d="M131.617 18.6336C131.617 18.6336 128.98 18.0905 126.804 17.6078C124.81 17.154 123.798 16.5806 123.798 15.1932C123.798 13.7136 125.239 12.476 128.336 12.476C131.372 12.476 133.058 13.8044 133.058 14.9814L133.579 15.4352H137.993L138.331 15.0117C138.331 11.9026 135.602 8.18994 128.458 8.18994C121.01 8.18994 118.679 12.5063 118.679 15.2826C118.679 17.6064 119.537 20.3538 125.239 21.6519L130.146 22.7382C132.629 23.2827 133.671 24.127 133.671 25.5461C133.671 26.8442 132.353 28.4131 128.919 28.4131C125.73 28.4131 123.798 26.9047 123.708 25.124L123.155 24.6702H118.649L118.312 25.124C118.711 29.1075 121.714 32.8505 128.889 32.8505C137.013 32.8505 138.668 27.9607 138.668 25.3948C138.668 21.9544 136.674 19.7199 131.617 18.6336Z" fill="#4D4D5D"/>
<path fill-rule="evenodd" clip-rule="evenodd" d="M131.617 18.6336C131.617 18.6336 128.98 18.0905 126.804 17.6078C124.81 17.154 123.798 16.5806 123.798 15.1932C123.798 13.7136 125.239 12.476 128.336 12.476C131.372 12.476 133.058 13.8044 133.058 14.9814L133.579 15.4352H137.993L138.331 15.0117C138.331 11.9026 135.602 8.18994 128.458 8.18994C121.01 8.18994 118.679 12.5063 118.679 15.2826C118.679 17.6064 119.537 20.3538 125.239 21.6519L130.146 22.7382C132.629 23.2827 133.671 24.127 133.671 25.5461C133.671 26.8442 132.353 28.4131 128.919 28.4131C125.73 28.4131 123.798 26.9047 123.708 25.124L123.155 24.6702H118.649L118.312 25.124C118.711 29.1075 121.714 32.8505 128.889 32.8505C137.013 32.8505 138.668 27.9607 138.668 25.3948C138.668 21.9544 136.674 19.7199 131.617 18.6336Z" fill="url(#paint3_linear)" fill-opacity="0.4"/>
<defs>
<linearGradient id="paint0_linear" x1="151.18" y1="0" x2="151.18" y2="16.5944" gradientUnits="userSpaceOnUse">
<stop stop-color="white"/>
<stop offset="1" stop-color="white" stop-opacity="0"/>
</linearGradient>
<linearGradient id="paint1_linear" x1="45.2833" y1="8.61084" x2="45.2833" y2="32.3996" gradientUnits="userSpaceOnUse">
<stop stop-color="white"/>
<stop offset="1" stop-color="white" stop-opacity="0"/>
</linearGradient>
<linearGradient id="paint2_linear" x1="77.1213" y1="8.12964" x2="77.1213" y2="32.8507" gradientUnits="userSpaceOnUse">
<stop stop-color="white"/>
<stop offset="1" stop-color="white" stop-opacity="0"/>
</linearGradient>
<linearGradient id="paint3_linear" x1="128.49" y1="8.18994" x2="128.49" y2="32.8505" gradientUnits="userSpaceOnUse">
<stop stop-color="white"/>
<stop offset="1" stop-color="white" stop-opacity="0"/>
</linearGradient>
</defs>
</svg>

<svg xmlns="http://www.w3.org/2000/svg" width="160" height="33" fill="none"><path fill="#4D4D5D" fill-rule="evenodd" d="M159.5 8.3l-8.32 8.3-8.31-8.3 8.31-8.3 8.31 8.3z" clip-rule="evenodd"/><path fill="url(#paint0_linear)" fill-opacity=".4" fill-rule="evenodd" d="M159.5 8.3l-8.32 8.3-8.31-8.3 8.31-8.3 8.31 8.3z" clip-rule="evenodd"/><path fill="#4D4D5D" fill-rule="evenodd" d="M37.19 8.61h-4.7l-.48.43-4.82 16.26h-.03l-5.4-16.26-.48-.43h-4.9l-.5.43-5.36 16.17-.1-.06-.03-.02-4.81-16.1-.5-.42H.32L0 9.04l7.51 22.9.52.46h4.72l.53-.45 5.36-16.4h.12l5.4 16.4.52.45h4.78l.52-.45L37.5 9.04l-.31-.43zm53.07 0h-4.72l-.52.43-6.6 16.93-.06.03-6.53-16.96-.52-.43H66.5l-.3.43 9.4 22.9.56.46h4.35l.55-.45 9.5-22.91-.3-.43z" clip-rule="evenodd"/><path fill="url(#paint1_linear)" fill-opacity=".4" fill-rule="evenodd" d="M37.19 8.61h-4.7l-.48.43-4.82 16.26h-.03l-5.4-16.26-.48-.43h-4.9l-.5.43-5.36 16.17-.1-.06-.03-.02-4.81-16.1-.5-.42H.32L0 9.04l7.51 22.9.52.46h4.72l.53-.45 5.36-16.4h.12l5.4 16.4.52.45h4.78l.52-.45L37.5 9.04l-.31-.43zm53.07 0h-4.72l-.52.43-6.6 16.93-.06.03-6.53-16.96-.52-.43H66.5l-.3.43 9.4 22.9.56.46h4.35l.55-.45 9.5-22.91-.3-.43z" clip-rule="evenodd"/><path fill="#4D4D5D" d="M114.6 21.77l.46-.42v-.7c0-3.7-1.07-6.9-3.19-9.14-2.11-2.23-4.97-3.38-8.46-3.38-3.37 0-6.2 1.24-8.37 3.65a12.55 12.55 0 00-3.25 8.66c0 3.54 1.14 6.5 3.37 8.82 2.24 2.32 5.19 3.5 8.74 3.5 2.58 0 4.78-.6 6.56-1.84 1.78-1.2 3.65-3.2 4.3-5.92l-.34-.45H110l-.61.45c-1.1 2.18-2.79 3.2-5.58 3.2a6.9 6.9 0 01-4.78-1.87 6.67 6.67 0 01-2.21-4.62l17.78.06zm-17.47-4.22a6.45 6.45 0 016.28-4.9c4.14 0 5.86 2.9 6.35 4.9H97.13zM58.53 8.6l-.46.46v2.35l-.1.1a8.49 8.49 0 00-3.12-2.43 10.2 10.2 0 00-4.45-.93c-3.03 0-5.7 1.2-7.9 3.56a12.4 12.4 0 00-3.32 8.79c0 3.47 1.1 6.43 3.31 8.78a10.55 10.55 0 007.91 3.56c1.63 0 3.1-.3 4.42-.93.24-.13.52-.25.76-.4a8.9 8.9 0 002.36-1.96c.03-.03.13.03.16 0v2.45l.46.45h4.01l.46-.45V9.04l-.46-.46h-4.04v.03zm-2.49 17.57a6.5 6.5 0 01-4.93 2.11c-1.9 0-3.31-.7-4.7-2.14-1.37-1.42-2.05-3.32-2.05-5.7 0-2.36.7-4.26 2.06-5.71 1.38-1.42 2.76-2.14 4.69-2.14 1.93 0 3.55.7 4.93 2.1a7.38 7.38 0 011.81 3.42v4.59a6.92 6.92 0 01-1.8 3.47z"/><path fill="url(#paint2_linear)" fill-opacity=".4" d="M114.6 21.77l.46-.42v-.7c0-3.7-1.07-6.9-3.19-9.14-2.11-2.23-4.97-3.38-8.46-3.38-3.37 0-6.2 1.24-8.37 3.65a12.55 12.55 0 00-3.25 8.66c0 3.54 1.14 6.5 3.37 8.82 2.24 2.32 5.19 3.5 8.74 3.5 2.58 0 4.78-.6 6.56-1.84 1.78-1.2 3.65-3.2 4.3-5.92l-.34-.45H110l-.61.45c-1.1 2.18-2.79 3.2-5.58 3.2a6.9 6.9 0 01-4.78-1.87 6.67 6.67 0 01-2.21-4.62l17.78.06zm-17.47-4.22a6.45 6.45 0 016.28-4.9c4.14 0 5.86 2.9 6.35 4.9H97.13zM58.53 8.6l-.46.46v2.35l-.1.1a8.49 8.49 0 00-3.12-2.43 10.2 10.2 0 00-4.45-.93c-3.03 0-5.7 1.2-7.9 3.56a12.4 12.4 0 00-3.32 8.79c0 3.47 1.1 6.43 3.31 8.78a10.55 10.55 0 007.91 3.56c1.63 0 3.1-.3 4.42-.93.24-.13.52-.25.76-.4a8.9 8.9 0 002.36-1.96c.03-.03.13.03.16 0v2.45l.46.45h4.01l.46-.45V9.04l-.46-.46h-4.04v.03zm-2.49 17.57a6.5 6.5 0 01-4.93 2.11c-1.9 0-3.31-.7-4.7-2.14-1.37-1.42-2.05-3.32-2.05-5.7 0-2.36.7-4.26 2.06-5.71 1.38-1.42 2.76-2.14 4.69-2.14 1.93 0 3.55.7 4.93 2.1a7.38 7.38 0 011.81 3.42v4.59a6.92 6.92 0 01-1.8 3.47z"/><path fill="#4D4D5D" fill-rule="evenodd" d="M131.62 18.63s-2.64-.54-4.82-1.02c-1.99-.46-3-1.03-3-2.42 0-1.48 1.44-2.71 4.54-2.71 3.03 0 4.72 1.32 4.72 2.5l.52.46h4.41l.34-.43c0-3.1-2.73-6.82-9.87-6.82-7.45 0-9.78 4.32-9.78 7.1 0 2.32.86 5.06 6.56 6.36l4.9 1.09c2.49.54 3.53 1.39 3.53 2.8 0 1.3-1.32 2.87-4.75 2.87-3.19 0-5.12-1.5-5.21-3.29l-.55-.45h-4.51l-.34.45c.4 3.99 3.4 7.73 10.58 7.73 8.12 0 9.78-4.89 9.78-7.46 0-3.44-2-5.67-7.05-6.76z" clip-rule="evenodd"/><path fill="url(#paint3_linear)" fill-opacity=".4" fill-rule="evenodd" d="M131.62 18.63s-2.64-.54-4.82-1.02c-1.99-.46-3-1.03-3-2.42 0-1.48 1.44-2.71 4.54-2.71 3.03 0 4.72 1.32 4.72 2.5l.52.46h4.41l.34-.43c0-3.1-2.73-6.82-9.87-6.82-7.45 0-9.78 4.32-9.78 7.1 0 2.32.86 5.06 6.56 6.36l4.9 1.09c2.49.54 3.53 1.39 3.53 2.8 0 1.3-1.32 2.87-4.75 2.87-3.19 0-5.12-1.5-5.21-3.29l-.55-.45h-4.51l-.34.45c.4 3.99 3.4 7.73 10.58 7.73 8.12 0 9.78-4.89 9.78-7.46 0-3.44-2-5.67-7.05-6.76z" clip-rule="evenodd"/><defs><linearGradient id="paint0_linear" x1="151.18" x2="151.18" y1="0" y2="16.594" gradientUnits="userSpaceOnUse"><stop stop-color="#fff"/><stop offset="1" stop-color="#fff" stop-opacity="0"/></linearGradient><linearGradient id="paint1_linear" x1="45.283" x2="45.283" y1="8.611" y2="32.4" gradientUnits="userSpaceOnUse"><stop stop-color="#fff"/><stop offset="1" stop-color="#fff" stop-opacity="0"/></linearGradient><linearGradient id="paint2_linear" x1="77.121" x2="77.121" y1="8.13" y2="32.851" gradientUnits="userSpaceOnUse"><stop stop-color="#fff"/><stop offset="1" stop-color="#fff" stop-opacity="0"/></linearGradient><linearGradient id="paint3_linear" x1="128.49" x2="128.49" y1="8.19" y2="32.85" gradientUnits="userSpaceOnUse"><stop stop-color="#fff"/><stop offset="1" stop-color="#fff" stop-opacity="0"/></linearGradient></defs></svg>
